X: 2
T: Nevestinsko Oro
T: Oro So Poga\vceto
O: Prespansko
N: Eb alto sax version; original in Cm
Z: 2008 John Chambers <jc@trillian.mit.edu>
S: printed MS of unknown origin
M: 2/4
L: 1/16
K: Am
|: A_BAG A2=B2 | c2d2 c2B2  |    c6   d2   |    efed c2B2  :|
|: BccB  A4    | ABBA AG^FG |1,3 A6   G2   |    efed c2B2  :|2,4 A6      ^cd   | A2{^c}d2 A2z2 :|
|: efga  gfed  | cBed c2B2  |    cBAc BABG |1   AGAB c2d2  :|2   A2{^c}d2 A2z2 ||
|: cBAc  BABG  | A3G  ABcd  |    cBAc BABG |1,3 A2AG ^FED2 :|2,4 A2{^c}d2 A2z2 :|
|: e3f   e2d2  | d2c2 cBcd  |    e3f  e2d2 |    d2c2 cBcd  |     e3f      e2d2 |
| d2c2 BABG |1 A6 G2 | AGAB c2d2 :|2 A6 ^cd | A2{^c}d2 A2z2 |]
